!!!COM: Leoš [Leo Eugen] Janáček
!!!OTL: [T150_Jan-w44p164-165h40m3-11]
**kern	**dynam	**kern	**dynam	**kern	**dynam	**kern	**dynam	**kern	**dynam	**kern	**text	**text	**text	**kern	**dynam	**kern	**kern	**dynam	**kern	**kern	**dynam	**kern	**kern	**dynam
*part10	*part10	*part9	*part9	*part8	*part8	*part7	*part7	*part6	*part6	*part5	*part5	*part5	*part5	*part4	*part4	*part3	*part3	*part3	*part2	*part2	*part2	*part1	*part1	*part1
*staff13	*	*staff12	*	*staff11	*	*staff10	*	*staff9	*	*staff8	*staff8	*staff8	*staff8	*staff7	*	*staff6	*staff5	*	*staff4	*staff3	*	*staff2	*staff1	*
*I"Contrabass	*	*I"Violoncello	*	*I"Viola	*	*I"Violin II	*	*I"Violin I	*	*I"Revírník	*	*	*	*I"Horn in F 1. 2	*	*I"Bassoon 1. 2	*	*	*I"Clarinet in Bb 1. 2	*	*	*I"Oboe 1. 2	*	*
*I'Cb.	*	*I'Vc.	*	*I'Vla.	*	*I'Vln. II	*	*I'Vln. I	*	*I'Rv.	*	*	*	*I'Hn.	*	*I'Bsn.	*	*	*I'Cl.	*	*	*I'Ob.	*	*
!!pagebreak:original
*clefF4	*	*clefF4	*	*clefC3	*	*clefG2	*	*clefG2	*	*clefF4	*	*	*	*clefG2	*	*clefF4	*clefF4	*	*clefG2	*clefG2	*	*clefG2	*clefG2	*
*ITrd0c0	*	*	*	*	*	*	*	*	*	*	*	*	*	*ITrd4c7	*	*	*	*	*ITrd1c2	*ITrd1c2	*	*	*	*
*k[]	*	*k[]	*	*k[]	*	*k[]	*	*k[]	*	*k[]	*	*	*	*k[b-]	*	*k[]	*k[]	*	*k[b-e-]	*k[b-e-]	*	*k[]	*k[]	*
*	*	*	*	*	*	*	*	*	*	*	*	*	*	*	*	*	*	*	*	*	*	*	*	*
*M3/4	*	*M3/4	*	*M3/4	*	*M3/4	*	*M3/4	*	*M3/4	*	*	*	*M3/4	*	*M3/4	*M3/4	*	*M3/4	*M3/4	*	*M3/4	*M3/4	*
=1	=1	=1	=1	=1	=1	=1	=1	=1	=1	=1	=1	=1	=1	=1	=1	=1	=1	=1	=1	=1	=1	=1	=1	=1
!	!	!	!	!	!	!	!	!	!	!	!	!	!	!	!	!	!LO:TX:b:i:t=]	!	!	!	!	!	!LO:TX:t=[quarter]=104	!
!	!	!	!	!LO:TX:b:t=[pp]	!	!	!	!	!	!	!	!	!	!	!	!	!LO:TX:b:t=[p]	!	!	!LO:TX:b:t=[mf]	!	!	!LO:TX:b:t=[mf]	!
!	!	!	!	!LO:TX:b:i:t=]	!	!LO:TX:b:t=[p]	!	!LO:TX:b:t=[p]	!	!	!	!	!	!	!	!	!LO:TX:b:t=[f]	!	!	!LO:TX:b:t=[mf]	!	!	!LO:TX:b:t=[mf]	!
4%3r	.	4%3r	.	4B-XiT	> ]	4r	.	4r	.	4%3r	.	.	.	4%3r	.	4B-Xi	(8d-X'L	> > ]	4r	8r	.	4r	8r	.
.	.	.	.	.	.	.	.	.	.	.	.	.	.	.	.	.	8B-X'J)	.	.	8e-'	.	.	8e-X'	.
!	!	!	!	!	!	!	!	!	!	!	!	!	!	!	!	!	!	!	!	!LO:TX:b:i:t=[	!	!	!LO:TX:b:i:t=[	!
!	!	!	!	!	!	!LO:TX:b:i:t=[	!	!LO:TX:b:i:t=[	!	!	!	!	!	!	!	!	!LO:TX:b:i:t=]	!	!	!LO:TX:b:i:t=[	!	!	!LO:TX:b:i:t=[	!
.	.	.	.	4r	.	[2b-XT	>	[2bb-XT	>	.	.	.	.	.	.	4r	4E-X	]	[2b-	4b-	< >	[2b-X	4b-X	< >
.	.	.	.	4r	.	.	.	.	.	.	.	.	.	.	.	4r	4B-	.	.	(8dd-XL	.	.	(8dd-XL	.
.	.	.	.	.	.	.	.	.	.	.	.	.	.	.	.	.	.	.	.	8ee-J	]	.	8ee-XJ	]
=2	=2	=2	=2	=2	=2	=2	=2	=2	=2	=2	=2	=2	=2	=2	=2	=2	=2	=2	=2	=2	=2	=2	=2	=2
!	!	!	!	!	!	!LO:TX:b:i:t=]	!	!LO:TX:b:i:t=]	!	!	!	!	!	!	!	!	!	!	!	!LO:TX:b:i:t=]	!	!	!LO:TX:b:i:t=]	!
4%3r	.	4%3r	.	4r	.	4b-]	]	4bb-]	]	4%3r	.	.	.	4%3r	.	4r	8r	.	4b-]	8dd-X'L	> ]	4b-]	8dd-X'L	> ]
.	.	.	.	.	.	.	.	.	.	.	.	.	.	.	.	.	8E-X'	.	.	8b-'J)	.	.	8b-X'J)	.
!	!	!	!	!	!	!	!	!	!	!	!	!	!	!	!	!	!LO:TX:b:i:t=]	!	!	!	!	!	!	!
!	!	!	!	!LO:TX:b:i:t=]	!	!	!	!	!	!	!	!	!	!	!	!	!LO:TX:b:i:t=[	!	!	!	!	!	!	!
!	!	!	!	!LO:TX:b:i:t=[	!	!	!	!	!	!	!	!	!	!	!	!	!LO:TX:b:i:t=[	!	!	!LO:TX:b:i:t=]	!	!	!LO:TX:b:i:t=]	!
.	.	.	.	[2B-XT	> ]	4r	.	4r	.	.	.	.	.	.	.	[2B-X	4B-X	< > ]	4r	4e-	]	4r	4e-X	]
.	.	.	.	.	.	4r	.	4r	.	.	.	.	.	.	.	.	(8d-XL	.	4r	4b-	.	4r	4b-	.
.	.	.	.	.	.	.	.	.	.	.	.	.	.	.	.	.	8e-XJ	]	.	.	.	.	.	.
=3	=3	=3	=3	=3	=3	=3	=3	=3	=3	=3	=3	=3	=3	=3	=3	=3	=3	=3	=3	=3	=3	=3	=3	=3
!	!	!	!	!	!	!	!	!	!	!	!	!	!	!	!	!	!	!	!	!LO:TX:b:i:t=]	!	!	!LO:TX:b:i:t=]	!
!	!	!	!	!	!	!	!	!	!	!LO:TX:a:t=[mf]	!	!	!	!	!	!	!	!	!	!LO:TX:b:i:t=[	!	!	!LO:TX:b:i:t=[	!
4%3r	.	4%3r	.	2.B-X_	.	[2.b-XT	.	[2.bb-XT	.	4%3r	.	.	.	4%3r	.	4B-]	8d-X'L	.	4%3r	[2.b-T	p	4%3r	([2.b-XT	p
.	.	.	.	.	.	.	.	.	.	.	.	.	.	.	.	.	8B-X'J)	.	.	.	.	.	.	.
.	.	.	.	.	.	.	.	.	.	.	.	.	.	.	.	4r	4E-X	.	.	.	.	.	.	.
.	.	.	.	.	.	.	.	.	.	.	.	.	.	.	.	4r	4B-	.	.	.	.	.	.	.
=4	=4	=4	=4	=4	=4	=4	=4	=4	=4	=4	=4	=4	=4	=4	=4	=4	=4	=4	=4	=4	=4	=4	=4	=4
*	*	*	*	*	*	*	*	*	*	*^	*	*	*	*	*	*	*	*	*	*	*	*	*	*
!	!	!	!	!	!	!	!	!	!	!	!	!	!	!	!	!	!	!LO:TX:b:i:t=]	!	!	!	!	!	!	!
!	!	!	!	!	!	!	!	!	!	!	!	!	!	!	!	!	!	!LO:TX:b:i:t=[	!	!	!	!	!	!	!
!	!	!	!	!	!	!	!	!	!	!	!	!	!	!	!	!	!	!LO:TX:a:t=a 2	!	!	!	!	!	!	!
4%3r	.	4%3r	.	2.B-_	<	2.b-_	<	2.bb-_	<	8r	4r	.	.	.	4%3r	.	4%3r	8d-X'L	p	4%3r	2.b-_	<	4%3r	2.b-_	<
.	.	.	.	.	.	.	.	.	.	8B-X	.	.	.	The	.	.	.	8B-X'	.	.	.	.	.	.	.
*	*	*	*	*	*	*	*	*	*	*v	*v	*	*	*	*	*	*	*	*	*	*	*	*	*	*
.	.	.	.	.	.	.	.	.	.	(8B-X	Šak	Das	tongue	.	.	.	8E-X'	.	.	.	.	.	.	.
.	.	.	.	.	.	.	.	.	.	8B-	se	käm	will	.	.	.	8B-'J	.	.	.	.	.	.	.
!	!	!	!	!	!	!	!	!	!	!	!	!	!	!	!	!	!LO:TX:b:i:t=[	!	!	!	!	!	!	!
.	.	.	.	.	.	.	.	.	.	8B-	ti	dir	come	.	.	.	8d-'L	<	.	.	.	.	.	.
.	.	.	.	.	.	.	.	.	.	8B-	to	zu	in	.	.	.	8B-'	.	.	.	.	.	.	.
=5	=5	=5	=5	=5	=5	=5	=5	=5	=5	=5	=5	=5	=5	=5	=5	=5	=5	=5	=5	=5	=5	=5	=5	=5
4%3r	.	4%3r	.	2.B-]	[	2.b-_	[	2.bb-_	[	8d-X	zho-	stat-	hand-	4%3r	.	4%3r	8E-X'	.	4%3r	2.b-]	[	4%3r	2.b-]	[
.	.	.	.	.	.	.	.	.	.	[8B-X	-dí,	-ten,	-y,	.	.	.	8B-X'J	.	.	.	.	.	.	.
.	.	.	.	.	.	.	.	.	.	2B-]	.	.	.	.	.	.	8d-X'L	.	.	.	.	.	.	.
.	.	.	.	.	.	.	.	.	.	.	.	.	.	.	.	.	8B-'	.	.	.	.	.	.	.
.	.	.	.	.	.	.	.	.	.	.	.	.	.	.	.	.	8E-'	.	.	.	.	.	.	.
!	!	!	!	!	!	!	!	!	!	!	!	!	!	!	!	!	!LO:TX:b:i:t=]	!	!	!	!	!	!	!
.	.	.	.	.	.	.	.	.	.	.	.	.	.	.	.	.	8B-'J	[	.	.	.	.	.	.
=6	=6	=6	=6	=6	=6	=6	=6	=6	=6	=6	=6	=6	=6	=6	=6	=6	=6	=6	=6	=6	=6	=6	=6	=6
!	!	!	!	!	!	!	!	!	!	!	!	!	!	!	!	!	!LO:TX:b:i:t=]	!	!	!	!	!	!	!
!	!	!	!	!	!	!	!	!	!	!	!	!	!	!	!	!	!LO:TX:b:i:t=[	!	!	!	!	!	!	!
4%3r	.	4%3r	.	(4.cn	f	8b-]	.	8bb-]	.	6E-X	rech-	Schul-	school-	8r	.	4%3r	8c'L	f	4%3r	[2.a-X	mf	4%3r	4a-X)	.
.	.	.	.	.	.	8a-X'	f	8aa-X'	f	.	.	.	.	8E-X 8c	mf	.	8E-X'	.	.	.	.	.	.	.
.	.	.	.	.	.	.	.	.	.	6E-	-tor-	-mei-	-mas-	.	.	.	.	.	.	.	.	.	.	.
.	.	.	.	.	.	4ee-X	<	4eee-X	<	.	.	.	.	8r	.	.	8AA-X'	.	.	.	.	.	4r	.
.	.	.	.	.	.	.	.	.	.	6E-)	-ku,	-ster,	-ter,	.	.	.	.	.	.	.	.	.	.	.
.	.	.	.	8E-X)	.	.	.	.	.	.	.	.	.	8E- 8c	.	.	8E-'J	.	.	.	.	.	.	.
.	.	.	.	([4c	.	(8ffL	.	(8fffL	.	4r	.	.	.	8r	.	.	8c'L	.	.	.	.	.	4r	.
.	.	.	.	.	.	8ggJ	[	8gggJ	[	.	.	.	.	8E- 8c	.	.	8E-'	.	.	.	.	.	.	.
=7	=7	=7	=7	=7	=7	=7	=7	=7	=7	=7	=7	=7	=7	=7	=7	=7	=7	=7	=7	=7	=7	=7	=7	=7
8r	.	8r	.	8cL]	.	8ff'L	>	8fff'L	>	4%3r	.	.	.	8r	.	4%3r	8AA-X'	.	4%3r	2.a-_	.	4%3r	4%3r	.
8AA-X'	f	8AA-X'	f	8E-XJ)	.	8ee-X'J)	.	8eee-X'J)	.	.	.	.	.	8E-X 8c	.	.	8E-X'J	.	.	.	.	.	.	.
!LO:TX:b:i:t=[	!	!LO:TX:b:i:t=[	!	!	!	!	!	!	!	!	!	!	!	!	!	!	!	!	!	!	!	!	!	!
4E-X	<	4E-X	<	(4.c	.	4a-X	]	4aa-X	]	.	.	.	.	8r	.	.	8c'L	.	.	.	.	.	.	.
.	.	.	.	.	.	.	.	.	.	.	.	.	.	8E- 8c	.	.	8E-'	.	.	.	.	.	.	.
(8FL	.	(8FL	.	.	.	4cc	.	4ccc	.	.	.	.	.	8r	.	.	8AA-'	.	.	.	.	.	.	.
8GJ	[	8GJ	[	8E-)	.	.	.	.	.	.	.	.	.	8E- 8c	.	.	8E-'J	.	.	.	.	.	.	.
=8	=8	=8	=8	=8	=8	=8	=8	=8	=8	=8	=8	=8	=8	=8	=8	=8	=8	=8	=8	=8	=8	=8	=8	=8
!	!	!	!	!	!	!	!	!	!	!	!	!	!	!	!	!	!LO:TX:b:i:t=]	!	!	!LO:TX:b:i:t=]	!	!	!	!
!	!	!	!	!LO:TX:b:i:t=[	!	!	!	!	!	!	!	!	!	!	!	!	!LO:TX:b:i:t=[	!	!	!LO:TX:b:i:t=[	!	!	!	!
8F'L	>	8F'L	>	(4.c	>	8r	.	8r	.	4B-X	až	wenn	next	8r	.	4%3r	8c'L	p	4%3r	2.a-_	p	4%3r	4%3r	.
!	!	!	!	!	!	!LO:TX:b:i:t=]	!	!LO:TX:b:i:t=]	!	!	!	!	!	!LO:TX:b:i:t=]	!	!	!	!	!	!	!	!	!	!
!	!	!	!	!	!	!LO:TX:b:i:t=[	!	!LO:TX:b:i:t=[	!	!	!	!	!	!LO:TX:b:i:t=[	!	!	!	!	!	!	!	!	!	!
8E-X'J)	.	8E-X'J)	.	.	.	8a-X'	p	8aa-X'	p	.	.	.	.	8E-X 8c	p	.	8E-X'	.	.	.	.	.	.	.
4AA-X	.	4AA-X	.	.	.	4ee-X	<	4eee-X	<	4B-	pu-	du	time	8r	.	.	8AA-X'	.	.	.	.	.	.	.
.	.	.	.	8E-X)	.	.	.	.	.	.	.	.	.	8E- 8c	.	.	8E-'J	.	.	.	.	.	.	.
!LO:TX:b:i:t=]	!	!LO:TX:b:i:t=]	!	!LO:TX:b:i:t=]	!	!	!	!	!	!	!	!	!	!	!	!	!	!	!	!	!	!	!	!
4C	p ]	4C	p ]	([4c	p ]	(8ffL	.	(8fffL	.	4B-	-deš	den	you	8r	.	.	8c'L	.	.	.	.	.	.	.
.	.	.	.	.	.	8ggJ	[	8gggJ	[	.	.	.	.	8E- 8c	.	.	8E-'	.	.	.	.	.	.	.
=9	=9	=9	=9	=9	=9	=9	=9	=9	=9	=9	=9	=9	=9	=9	=9	=9	=9	=9	=9	=9	=9	=9	=9	=9
8r	.	8r	.	8cL]	.	8ff'L	>	8fff'L	>	16%3B-X	na	Son-	go	8r	.	4%3r	8AA-X'	.	4%3r	2.a-]	.	4%3r	4%3r	.
8BB-X'	.	8BB-X'	.	8E-XJ)	.	8ee-X'J)	.	8eee-X'J)	.	.	.	.	.	8E-X 8c	.	.	8E-X'J	.	.	.	.	.	.	.
.	.	.	.	.	.	.	.	.	.	16%3B-	nám-	-nen-	a-	.	.	.	.	.	.	.	.	.	.	.
4E-X	.	4E-X	.	(4.c	.	4a-X	]	4aa-X	]	.	.	.	.	8r	.	.	8c'L	.	.	.	.	.	.	.
.	.	.	.	.	.	.	.	.	.	16%3B-	-lu-	-blu-	-court-	8E- 8c	.	.	8E-'	.	.	.	.	.	.	.
(8FL	.	(8FL	.	.	.	4cc	.	4ccc	.	.	.	.	.	8r	.	.	8AA-'	.	.	.	.	.	.	.
.	.	.	.	.	.	.	.	.	.	16%3B-	-vy	-men	-ing	.	.	.	.	.	.	.	.	.	.	.
8GJ	.	8GJ	.	8E-)	.	.	.	.	.	.	.	.	.	8E- 8c	.	.	8E-'J	.	.	.	.	.	.	.
=||	=||	=||	=||	=||	=||	=||	=||	=||	=||	=||	=||	=||	=||	=||	=||	=||	=||	=||	=||	=||	=||	=||	=||	=||
*-	*-	*-	*-	*-	*-	*-	*-	*-	*-	*-	*-	*-	*-	*-	*-	*-	*-	*-	*-	*-	*-	*-	*-	*-
!!!system-decoration: [([({(s1,s2)})][({(s3,s4)})][({(s5,s6)})])][(s7)]s8[(s9,s10,s11,s12,s13)]
!!!RDF**kern: i = editorial accidental
